X: 13304
T: Flaherty's
R: hornpipe
M: 4/4
K: Dmajor
|:dB|(3ABA FA A,DFA|dced B2 dB|(3ABA FA A,DFA|BAGF EA,CE|
(3ABA FA A,DFA|dced B2 (3dcB|AdcB AGFE|(3DED CE D2:|
|:dc|BABc dcdf|bagf eAcd|cEEF GABd|(3efe (3dcB A2 dB|
(3ABA FA A,DFA|dced B2 dB|AdcB AGFE|(3DED CE D2:|

